X:1
T:To Jesus I Will Go
T:William Howard Doane
T:To Jesus I Will Go
T:Public Domain
T:Public Domain
C:William Howard Doane
Z:Public Domain
%%score ( 1 2 ) ( 3 4 )
L:1/8
M:4/4
K:F
V:1 treble 
V:2 treble 
V:3 bass 
V:4 bass 
V:1
 F[EG] | [FA][FA][FA][Fd] [Fc]2 [CF][EG] | [FA]6 [EG]F | [EG][EG][EG][FA] [GB]2 [FA][EG] | %4
w: 1.~There’s a|tle voice with- in calls a- way,|’Tis a warn-|I have heard o’er and o’er, But|
w: 2.~He has|mised all my sins to for- give,|If I ask|sim- ple faith for His love, In|
w: 3.~I will|to bear the cross in my youth,|And be faith-|in its cause till I die; If|
w: 4.~Still the|tle voice with- in calls a- way,|And its warn-|I have heard o’er and o’er; But|
 [FA]6 F[EG] | [FA][FA][FA][Fd] [Fc]2 [CF][EG] | [FA]6 [EG]F | [EG][EG][EG][FA] [GB]2 [FA][EG] | %8
w: my heart is|ed now, I o- bey; From my|Sav- ior I|wan- der no more. * * *|
w: His ho- ly|I learn how to live, And to|la- bor for|king- dom a- bove. Yes, I will|
w: with cheer- ful|I walk in the truth, I shall|wear a star-|crown by and by. * * *|
w: my heart is|ted now, I o- bey: From my|Sav- ior I|wan- der no more. * * *|
 F6 z2 ||"^Refrain" [EG]2 [EG][EG] [EG]2 z2 | [FA]2 [FA][FA] [FA]2 z [FA] | %11
w: |||
w: go;|I will go; To|Je- sus I will go|
w: |||
w: |||
 [FB][FB][Fc][Fd] [Fc]2 [FA][CF] | [EG]6 z2 | [FA]2 [FA][FA] [GA]4 | [FA]2 [FA][FA] [Fd]2 z [Fd] | %15
w: ||||
w: and be saved; Yes, I will go;|yes,|I will go; To|Je- sus I will go|
w: ||||
w: ||||
 [Fd][Fc][FA]F [EG]2 [EA][EG] | F6 |] %17
w: ||
w: and be saved. * * * *||
w: ||
w: ||
V:2
 F x | x8 | x7 F | x8 | x6 F x | x8 | x7 F | x8 | F6 x2 || x8 | x8 | x8 | x8 | x8 | x8 | x3 F x4 | %16
w: gen-||ing||melt-||will||||||||||
w: pro-||in||Word||His||yes,||||||||
w: try||ful||step||ry||||||||||
w: gen-||ing||mel-||will||||||||||
 F6 |] %17
w: |
w: |
w: |
w: |
V:3
 [F,A,][F,B,] | [F,C][F,C][F,C][F,B,] [F,A,]2 [A,C][G,C] | [F,C]2 [F,C][F,C] [F,C]2 [F,B,][F,A,] | %3
 [C,C][C,C][C,C][C,C] [C,C]2 [C,C][C,C] | [F,C]2 [F,C][F,C] [F,C]2 [F,A,][F,B,] | %5
 [F,C][F,C][F,C][F,B,] [F,A,]2 [A,C][G,C] | [F,C]2 [F,C][F,C] [F,C]2 [F,B,][F,A,] | %7
 [C,C][C,C][C,C][C,C] [C,C]2 [C,C][C,B,] | [F,A,]6 z2 || [C,C]2 [C,C][C,C] [C,C]2 z2 | %10
 [F,C]2 [F,C][F,C] [F,C]2 z [F,_E] | [F,D][F,D][F,A,][F,B,] [F,A,]2 [F,C][F,A,] | %12
 (z4 (3CCC (3B,A,G,) | [F,C]2 [F,C][F,C] [E,^C]4 | [D,D]2 [C,_E][C,E] [B,,D]2 z [B,,B,] | %15
 [C,A,][C,A,][C,C][C,A,] [C,B,]2 [C,C][C,B,] | [F,A,]6 |] %17
V:4
 x2 | x8 | x8 | x8 | x8 | x8 | x8 | x8 | x8 || x8 | x8 | x8 | [C,C]6 x2 | x8 | x8 | x8 | x6 |] %17

